X:507
%%etbk:tnset id:233,pos:1,rep:3x,ant:
%%etbk:color #ffe6e6
%%etbk:pldat 2014-12-30T18:06,2014-12-11T18:47,2014-05-04T10:53,2014-05-01T18:49,2014-04-30T17:32,2014-02-18T18:34,2014-02-13T18:56,2014-02-08T13:35,2014-02-07T16:13,2013-11-06T18:05,2013-10-02T18:04,2013-09-30T18:46,2013-09-26T14:43,2013-09-17T11:12,2013-09-15T15:35
T:Holly Bush, The
Z: Piano Box Version by Martin Fleischmann
H: Created 2013-09-09 /  Last Modified 2014-12-11
M:4/4
L:1/8
C:Finbar Dwyer
R:reel
K:Dmix
|: "D"!3!A2!2!FA !1!DAF!3!A|!1!ABde !5!fde!3!d| "C"!3!c!1!G!2!G!1!G !2!E!1!G!2!G!1!G| !3!c!5!e!4!d!3!c !1!A!2!G!2!G!2!G|
"D"!3!A2FA DAF!3!A| !1!ABde !5!fde!3!d| "C"!3!c2!1!GG !3!cedc|!1!A!3!FGE "D"!1!DEF!4!G:|
|:"D"!1!A!3!dd!2!^c !1!defg|!5!adde !1!d!3!cAB| "C"!3!c2cB c!4!d!2!eg|!5!age!1!d !3!c!1!A!1!Gc|
"D"!1!Add^c !1!defg |!5!adde !1!d!3!cAB| "C"!3!cedB !3!c!1!A!1!Gc|!1!A!3!F!4!GE "D"!1!DEF!4!G:|


